frontend/public/svg/interface/user-female.svg

<svg width="154" height="143" viewBox="0 0 154 143" fill="none" xmlns="http://www.w3.org/2000/svg">
<g clip-path="url(#clip0)">
<path d="M84.3438 0.117188C100.737 0.465588 112.804 7.69993 120.183 22.427C124.11 30.2634 127.735 38.2519 131.672 46.0831C133.271 49.2395 135.113 52.2658 137.183 55.1339C140.315 59.4974 138.333 65.8714 133.137 67.0356C129.996 67.6862 126.819 68.1484 123.623 68.4188C116.473 69.1338 109.311 69.7331 102.153 70.3792C101.936 70.4221 101.713 70.4377 101.492 70.426C97.2503 69.7162 93.5822 71.4692 89.7293 72.8537C83.8537 74.9025 77.5911 75.5883 71.4134 74.8583C63.893 74.0868 56.8699 72.1283 50.3979 68.1549C49.4449 67.5699 48.0911 67.5991 46.9099 67.436C40.764 66.591 34.8126 68.1783 28.7879 68.8939C26.805 69.1136 24.8091 69.1942 22.815 69.1364C18.8454 69.0506 16.0332 64.971 18.3074 61.3362C23.6391 52.8153 26.6628 43.1972 31.1666 34.2851C36.4399 23.8493 43.8468 15.3084 53.7347 9.02678C60.5174 4.7492 68.1485 2.00604 76.0974 0.98872C78.8333 0.616271 81.5937 0.403188 84.3438 0.117188ZM46.6772 39.0639C45.0565 48.4362 51.1654 58.9025 60.3772 62.2877C66.1135 64.3794 72.218 65.2656 78.3107 64.8921C88.0249 64.3598 95.2231 59.4925 100.391 51.4618C102.242 48.533 103.219 45.1347 103.206 41.6677C92.6914 38.1577 83.2677 33.5479 78.7418 21.9369C70.6536 33.3295 58.962 36.8415 46.6772 39.0639Z" fill="black"/>
<path d="M95.7722 141.958C81.4686 141.958 67.1644 141.89 52.8613 141.981C41.3422 142.055 29.8244 142.381 18.3067 142.466C15.3181 142.452 12.3348 142.213 9.38202 141.751C2.54628 140.76 -0.19735 136.706 2.06848 130.165C3.62287 125.776 5.65456 121.571 8.12684 117.626C18.5347 100.834 33.6702 89.8349 51.8506 82.8442C60.9466 79.2666 70.5706 77.2256 80.3328 76.8031C92.8321 76.3279 104.847 77.8483 115.993 83.957C125.898 89.3864 133.893 96.9199 140.536 106.019C145.292 112.534 148.57 119.827 151.908 127.084C152.689 129.046 153.169 131.115 153.334 133.221C153.9 137.788 151.532 140.773 146.959 141.25C143.55 141.606 140.116 141.881 136.692 141.9C123.054 141.972 109.416 141.929 95.7774 141.929L95.7722 141.958ZM9.32568 132.743C9.67214 132.894 10.0271 133.024 10.3888 133.132C14.3435 134.023 18.2904 133.475 22.2769 133.251C30.3444 132.796 38.4326 132.59 46.5144 132.548C73.2351 132.41 99.957 132.419 126.678 132.299C131.545 132.277 136.411 131.919 141.277 131.684C141.65 131.608 142.008 131.471 142.337 131.277C142.383 130.864 142.489 130.617 142.421 130.436C137.878 118.281 131.378 107.418 121.387 98.9453C115.58 94.0203 109.173 90.0514 101.683 88.2353C90.425 85.5436 78.7055 85.4422 67.403 87.9382C46.941 92.2932 29.8781 102.334 17.1765 119.258C14.0582 123.412 11.15 127.729 9.32568 132.739V132.743Z" fill="black"/>
</g>
<defs>
<clipPath id="clip0">
<rect width="153" height="143" fill="white" transform="translate(0.777344)"/>
</clipPath>
</defs>
</svg>

<svg xmlns="http://www.w3.org/2000/svg" width="154" height="143" fill="none" viewBox="0 0 154 143"><g fill="#000" clip-path="url(#a)"><path d="M84.344.117c16.393.349 28.46 7.583 35.839 22.31 3.927 7.836 7.552 15.825 11.489 23.656a68 68 0 0 0 5.511 9.05c3.132 4.364 1.15 10.738-4.046 11.903a80 80 0 0 1-9.514 1.383c-7.15.715-14.312 1.314-21.47 1.96q-.328.065-.661.047c-4.242-.71-7.91 1.043-11.763 2.428a41 41 0 0 1-18.316 2.004c-7.52-.771-14.543-2.73-21.015-6.703-.953-.585-2.307-.556-3.488-.719-6.146-.845-12.097.742-18.122 1.458-1.983.22-3.979.3-5.973.242-3.97-.085-6.782-4.165-4.508-7.8 5.332-8.52 8.356-18.139 12.86-27.05 5.273-10.437 12.68-18.978 22.568-25.26A55 55 0 0 1 76.097.99c2.736-.373 5.497-.586 8.247-.872M46.677 39.064c-1.62 9.372 4.488 19.839 13.7 23.224a44.4 44.4 0 0 0 17.934 2.604c9.714-.532 16.912-5.4 22.08-13.43a18.2 18.2 0 0 0 2.815-9.794c-10.515-3.51-19.938-8.12-24.464-19.731-8.088 11.393-19.78 14.905-32.065 17.127m49.095 102.894c-14.303 0-28.608-.068-42.91.023-11.52.074-23.038.4-34.555.485a59.5 59.5 0 0 1-8.925-.715c-6.836-.991-9.58-5.045-7.314-11.586a63.6 63.6 0 0 1 6.059-12.539C18.535 100.834 33.67 89.835 51.85 82.844a88.2 88.2 0 0 1 28.482-6.04c12.5-.476 24.514 1.044 35.66 7.153 9.905 5.43 17.9 12.963 24.543 22.062 4.756 6.515 8.034 13.808 11.372 21.065a21 21 0 0 1 1.426 6.137c.566 4.567-1.802 7.552-6.375 8.029-3.409.356-6.843.631-10.267.65-13.638.072-27.276.029-40.915.029zm-86.446-9.215q.52.227 1.063.389c3.955.891 7.901.343 11.888.119 8.067-.455 16.156-.661 24.237-.703 26.721-.138 53.443-.129 80.164-.249 4.867-.022 9.733-.38 14.599-.615a3.4 3.4 0 0 0 1.06-.407c.046-.413.152-.66.084-.841-4.543-12.155-11.043-23.018-21.034-31.49-5.807-4.926-12.214-8.895-19.704-10.71a76.5 76.5 0 0 0-34.28-.298c-20.462 4.355-37.525 14.396-50.226 31.32-3.119 4.154-6.027 8.471-7.851 13.481z"/></g><defs><clipPath id="a"><path fill="#fff" d="M.777 0h153v143h-153z"/></clipPath></defs></svg>
